X:1
T:Title
%%score 1 2 3
L:1/8
Q:1/4=120
M:4/4
K:C
V:1 treble nm="Grand Piano"
V:2 bass nm="Grand Piano, Melody"
V:3 bass nm="Grand Piano"
V:1
 A2 A2 c2 d2 | e2 e2 cB A2 | d2 d2 e2 cd | e2 d2 e4 | A2 G2 cd e2 | g2 ed c2 d2 | e2 c2 AB c2 | %7
 B2 B2 A4 | A2 G2 cd e2 | g2 ed c2 d2 | e2 c2 AB c2 | B2 B2 A4- | A8 |] %13
V:2
 A,2 A,2 A,2 G,A, | C2 C2 A,G, E,2 | G,2 G,2 A,2 G,A, | C2 D2 E4 | E2 G2 ED C2 | %5
 D2 ED C2[K:bass] G,2 | A,2 C2 A,G, E,2 | G,2 G,2 A,4 | E2 G2 ED C2 | D2 ED C2[K:bass] G,2 | %10
 A,2 C2 A,G, E,2 | G,2 G,2 A,4- | A,8 |] %13
V:3
 A,2 A,2 A,2 G,E, | C,2 C,2 C,D, E,2 | G,2 G,2 A,2 G,[E,C] | [C,G,]2 [D,G,]2 E,4 | A,2 G,2 A,2 C2 | %5
 G,2 A,G, E,2 G,2 | A,2 G,2 E,2 C,D, | E,2 E,2 A,,4 | A,2 G,2 A,2 C2 | G,2 A,G, E,2 G,2 | %10
 A,2 G,2 E,2 C,D, | E,2 E,2 A,,4- | A,,8 |] %13

